!! 00000] TT[WS
!!!OTL: Da guandeng
!!!ARE: Asia, China, Shanxi Qinyuan
!! Ethnic Group: Han
!! WII, 168 (1)
!!!SCT: J0652
!!!YEM: Copyright 1995, estate of Helmut Schaffrath.
**kern
*ICvox
*Ivox
*M2/4
*k[b-e-a-]
*E-:
{8r
8ee-
8dd
16cc
16dd
=1
8cc
8g
4b-
=2
8.b-
16gg
8ff
8gg
=3
8.ff
16dd
8cc
8ee-}
=4
{8r
8ff
8dd
16cc
16dd
=5
8cc
8g
4b-
=6
8.cc
16ee-
8b-
8cc
=7
8b-
8g
4b-}
=8
{8ee-
16b-
16cc
4ee-
=9
8ee-
8cc
8gg
16dd
16cc
=10
8b-
8cc
4g}
=11
{8ee-
8cc
8gg
16dd
16cc
=12
8.b-
16cc
4g
=13
8b-
8g
16f
16g
[8b-
=14
8b-]
8g
4b-}
=15
{8gg
16ff
16ff
8gg
8ee-
=16
8gg
8ee-
8dd
16cc
16dd
=17
16cc
16b-
8g
8b-
8cc
=18
8.dd
16cc
4b-}
==
!!!AGN: Xiaodiao. Fengsuge
!!!ONB: ESAC (Essen Associative Code) Database: CHINA
!!!AMT: simple duple
!!!AIN: vox
!!!EED: Helmut Schaffrath
!!!EEV: 1.0
*-
!!!ONB: Tied note syntax fixed by Craig Sapp, 2004/05/03/
